!!!ONB: MCCC : IJH0432_04 : Extracted Monophonic Melody
!!!COM: Haydn, Joseph
!!!OPR: String Quartet in D major
!!!OMV: 4
!!!SCT: Hob.III:70 ; Op.71 No.2
!!!ODT: 1793///
**kern
*thru
*k[f#c#]
*D:
*clefF
*M6/8
8a
8g
=1
8f#
8e
8f#
8g
8f#
8g
=2
8e
8d
8e
8f#
8dd
8cc#
=3
8r
8b
8a
8r
8g
8f#
=4
4a
8f#
8e
8a
8g
=5
8f#
8e
8f#
8g
8f#
8g
=6
8e
8d
8e
8f#
8a
8a#
=7
8b
8cc#
8dd
8a
8b
8g#
=8
4.b
8a
4r
=9
2r
8a
8b
=10
8cc
8g
8a
8b
8cc#
8dd
=11
8ee
8g
8f#
8b
8g
8e
=12
4.d
8c#
8a
8g
=13
8f#
8e
8f#
8g
8f#
8g
=14
8e
8d
8e
8f#
8g
8a
=15
8a
8g
8g
4.g
=16
8f#
8d
8g#
8a
8d
8a#
=17
8b
8d
8b
8cc
8d
8cc
=18
8b
8d
8cc#
8dd
8r
8b
=19
8a
8r
8g
8f#
8a
8c#
=20
4.e
8d
8aa
8gg
=21
8ff
8ee
8dd
8ee
8gg
8ff
=22
8ee
8ff
8dd
8cc#
8aa
8gg
=23
8ff
8ddd
8ccc
16bb-
16aa
16gg
16ff#
16gg
16aa
=24
16bb-
16aa
16gg
16ff#
16gg
16aa
16bb-
16aa
16gg
16ff
16ee
16dd
=25
16cc
16dd
16ee
16dd
16ee
16ff
16gg
16aa
16bb-
16ee
16ff
16gg
=26
8aa
8aa
8gg
8r
8ff
8ee
=27
8r
8dd
8cc
16b
16cc
16dd
16ee
16ff
16b
=28
16cc
16dd
16ee
16ff
16gg
16aa
16bb-
16ccc
16ddd
16eee
16fff
16ggg
=29
4.aaa
8ggg
8fff
8eee
=30
8fff
8ff
8ddd
8eee-
8ff
8ccc#
=31
8ddd
8dd
8aa
8bb-
8gg
8ee
=32
2.ff[
=33
4ff]
8ff#
8gg
8bb-
8ee
=34
8ff
8cc
8b-
8a
8g
8a
=35
8b-
8a
8b-
8g
8f
8g
=36
8a
8b-
4cc
8b-
8a
=37
8g
8f#
8g
8a
8ee-
8dd
=38
8cc
8b-
8cc
4b-
8r
=39
8r
8cc
8b-
8a
8g
8a
=40
8r
8dd
8cc
8b-
8a
8b-
=41
8r
8ee
8dd
8cc#
8a
8g#
=42
8r
8a
8g#
8r
8a
8g#
=43
8r
8a
8g#
8r
8a
8g#
=44
8r
8a
8g#
8r
8a
8g#
=45
8r
8a
8g#
8r
8a
8g#
=46
8r
8a
8g#
8r
8a
8g
=47
8f#
8e
8f#
8g
8f#
8g
=48
8e
8d
8e
8f#
8dd
8cc#
=49
8r
8b
8a
8r
8g
8f#
=50
4a
8f#
8e
8a
8g
=51
8f#
8e
8f#
8g
8f#
8g
=52
8e
8d
8e
8f#
8a
8a#
=53
16cc#
16b
16dd
16cc#
16ee
16dd
8a
8b
8g#
=54
4.b
8a
4r
=55
2r
16a
16dd
16b
16dd
=56
16cc
16dd
16g
16dd
16a
16dd
8b
8cc#
8dd
=57
8ee
8g
8f#
8b
16a
16g
16f#
16e
=58
4.d
8c#
16a
16b
16g
16a
=59
8f#
8e
8f#
8g
8f#
8g
=60
8e
8d
8e
8f#
8g
8a
=61
8a
8g
8g
4.g
=62
16f#
16e
16f#
16d
8g#
16a
16g#
16a
16d
8a#
=63
16b
16a#
16b
16d
8b
16cc
16b
16cc
16d
8cc
=64
16b
16a#
16b
16d
8cc#
16dd
16ff#
16ee
16dd
16cc#
16b
=65
16a
16dd
16cc#
16b
16a
16g
8f#
8a
8c#
=66
4.e
8d
8b
8e
=67
4.g
8f#
8dd
8g#
=68
4.b
8a
8gg
8cc#
=69
8dd
8aa
8dd#
8ee
8bb
8dd#
=70
8ee
16ccc
16bb
16aa
16gg
8ff#
8ee
8dd
=71
8cc#
8r
8cc#
8dd
8r
8dd
=72
8ee
8r
8ee
8ff#
8r
8ff#
=73
8gg
8ee
8cc#
8a
8g
8e
=74
4.c#
8r
8aa
8gg
=75
8ff#
8ee
8ff#
8gg
8ff#
8gg
=76
8ee
8dd
8ee
8ff#
8ddd
8ccc#
=77
8r
8bb
8aa
8r
8gg
8ff#
=78
4aa
8ff#
8ee
8aa
8gg
=79
8ff#
8ee
8ff#
8gg
8ff#
8gg
=80
8ee
8dd
8ee
8ff#
8aa
8aa#
=81
8bb
8ccc#
8ddd
8aa
8bb
8gg#
=82
4.bb
8aa
8ee
8ff#
=83
8gg
8dd
8ee
8ff#
8aa
8bb
=84
8ccc
8gg
8aa
8bb
8ccc#
8ddd
=85
8eee
8gg
8ff#
8bb
16aa
16gg
16ff#
16ee
=86
4.dd
8cc#
8aa
8gg
=87
8ff#
8ee
8ff#
8gg
8aa
8bb
=88
8ee
8dd
8ee
8ff#
8gg
8aa
=89
8aa
8gg
8gg
4gg
8ff#
=90
8ee
8gg
8bb
8dd
8ee
8cc#
=91
8dd
8r
8dd
8ee
8r
8ee
=92
8ff#
8r
8ff#
8gg
8r
8gg
=93
8gg#
8r
8gg#
8aa
8r
8aa
=94
4.bb
4r
8bb
=95
16aa
16ddd
16ccc#
16bb
16aa
16gg
16ff#
16bb
16aa
16gg
16ff#
16ee
=96
16dd
16ff#
16ee
16dd
16cc#
16b
16a
16b
16a
16g
16f#
16e
=97
16d
16f#
16e
16d
16c#
16B
16A
16f#
16e
16d
16c#
16B
=98
16A
16g
16f#
16e
16d
16c#
16B
16a
16g
16f#
16e
16d
=99
16c#
16b
16a
16g
16f#
16e
16d
16ff#
16ee
16dd
16cc#
16b
=100
16a
16g#
16f#
16e
16f#
16d
16c#
16a
16g#
16f#
16e
16d
=101
16c#
16f#
16e
16d
16c#
16B
4A
8r
=102
8r
8dd
8cc#
8b
8a
8b
=103
8cc#
8b
8cc#
4dd
8cc#
=104
4.b
8a
8a
8a
=105
4.a
8g
8g
8g
=106
4g
8f#
8e
8ee
8cc#
=107
16ddd
16ccc#
16bb
16aa
16gg
16ff#
16ee
16bb
16aa
16gg
16ff#
16ee
=108
16dd
16ff#
16ee
16dd
16cc#
16b
16a
16b
16a
16g
16f#
16e
=109
16ddd
16ccc#
16bb
16aa
16gg
16ff#
16ee
16bb
16aa
16gg
16ff#
16ee
=110
16dd
16ff#
16ee
16dd
16cc#
16b
16a
16b
16a
16g
16f#
16e
=111
16d
16e
16f#
16A
16B
16c#
16d
16e
16f#
16A
16B
16c#
=112
16d
16e
16f#
16B
16c#
16d
16e
16f#
16g
16c#
16d
16e
=113
16f#
16g
16a
16d
16e
16f#
16g
16a
16b
16cc#
16dd
16ee
=114
8ff#
8dd
8b
8g
8e
8a
=115
8d
8f#
8a
8dd
8ff#
8aa
=116
4ddd
8r
4ddd
8r
=117
4ddd
2r
==
*-
